icon/ir/bin-add.svg

<svg stroke-width="1.5" viewBox="0 0 24 24" fill="none" xmlns="http://www.w3.org/2000/svg" height="1em" width="1em">
  <path d="M8.99219 14H11.9922M14.9922 14H11.9922M11.9922 14V11M11.9922 14V17" stroke="currentColor" stroke-linecap="round" stroke-linejoin="round"/>
  <path d="M3.03919 4.2939C3.01449 4.10866 3.0791 3.92338 3.23133 3.81499C3.9272 3.31953 6.3142 2 12 2C17.6858 2 20.0728 3.31952 20.7687 3.81499C20.9209 3.92338 20.9855 4.10866 20.9608 4.2939L19.2616 17.0378C19.0968 18.2744 18.3644 19.3632 17.2813 19.9821L16.9614 20.1649C13.8871 21.9217 10.1129 21.9217 7.03861 20.1649L6.71873 19.9821C5.6356 19.3632 4.90325 18.2744 4.73838 17.0378L3.03919 4.2939Z" stroke="currentColor" stroke-width="1.5"/>
  <path d="M3 5C5.57143 7.66666 18.4286 7.66662 21 5" stroke="currentColor" stroke-width="1.5"/>
</svg>

<svg width="24" height="24" stroke-width="1.5" fill="none" xmlns="http://www.w3.org/2000/svg"><path d="M8.992 14h3m3 0h-3m0 0v-3m0 3v3" stroke="currentColor" stroke-linecap="round" stroke-linejoin="round"/><path d="M3.04 4.294a.496.496 0 0 1 .191-.479C3.927 3.32 6.314 2 12 2s8.073 1.32 8.769 1.815a.496.496 0 0 1 .192.479l-1.7 12.744a4 4 0 0 1-1.98 2.944l-.32.183a10 10 0 0 1-9.922 0l-.32-.183a4 4 0 0 1-1.98-2.944l-1.7-12.744Z" stroke="currentColor"/><path d="M3 5c2.571 2.667 15.429 2.667 18 0" stroke="currentColor"/></svg>
